X: 70
T:Rufty tufty
M:C|
L:1/8
Q:180
H:The title means swaggering, casual, or helter-skelter.
K:G
d2de|f2ef|ggf>e|1 d4:|2 d3 e/2f/2||
gfed|dcB>c|ddcB|A2G2||
B>cdd|ecd2|B>cdd|ecd B/2c/2|ddcB|A2G2||

